X: 19650
T: Jeanie's Distress
R: jig
M: 6/8
K: Dmajor
A/2G/2|F2 F (ED)E|D3 A2 A|B2 A G2 F|
E3 z z A/2G/2|F2 F (ED)E|D3 A2 A|(Bc)d (de)c|
(A3 A2) A|(Bc)d (cd)e|A3 (AG)F|B2 A G2 F|
(F3 E2) A/2G/2|F2 F (ED)E|D3 A2 A|(Bc)d (de)c|(d3 d2) z:|

